src/actions/symbolic/pointer-mode-resize-symbolic.svg

<svg width="16" height="16" version="1.1" xmlns="http://www.w3.org/2000/svg">
 <path d="m6 2c-1.662 0-3 1.338-3 3v3h1v-3c0-1.108 0.892-2 2-2h3v-1zm4 0v1h5v-1zm-7 7v6h1v-6z" fill="#363636" fill-rule="evenodd" stop-color="#000000"/>
 <rect x="4" y="3" width="11" height="12" rx="0" ry="0" fill="#363636" fill-rule="evenodd" opacity=".35" stop-color="#000000"/>
 <path d="m9.5078 1a1.5085 1.4975 0 0 0-1.5078 1.498 1.5085 1.4975 0 0 0 1.5078 1.4961 1.5085 1.4975 0 0 0 1.5098-1.4961 1.5085 1.4975 0 0 0-1.5098-1.498zm0 0.99414a0.50619 0.5025 0 0 1 0.50781 0.50391 0.50619 0.5025 0 0 1-0.50781 0.50195 0.50619 0.5025 0 0 1-0.50586-0.50195 0.50619 0.5025 0 0 1 0.50586-0.50391z" fill="#363636" fill-rule="evenodd" stop-color="#000000"/>
 <path d="m3.5078 7a1.5085 1.4975 0 0 0-1.5078 1.498 1.5085 1.4975 0 0 0 1.5078 1.4961 1.5085 1.4975 0 0 0 1.5098-1.4961 1.5085 1.4975 0 0 0-1.5098-1.498zm0 0.99414a0.50619 0.5025 0 0 1 0.50781 0.50391 0.50619 0.5025 0 0 1-0.50781 0.50195 0.50619 0.5025 0 0 1-0.50586-0.50195 0.50619 0.5025 0 0 1 0.50586-0.50391z" fill="#363636" fill-rule="evenodd" stop-color="#000000"/>
</svg>

<svg xmlns="http://www.w3.org/2000/svg" width="16" height="16">
    <path fill="#050505" fill-opacity=".7" fill-rule="evenodd" d="M6 2C4.338 2 3 3.338 3 5v3h1V5c0-1.108.892-2 2-2h3V2zm4 0v1h5V2zM3 9v6h1V9z"/>
    <rect width="11" height="12" x="4" y="3" fill="#050505" fill-opacity=".7" fill-rule="evenodd" opacity=".35" rx="0" ry="0"/>
    <path fill="#050505" fill-opacity=".7" fill-rule="evenodd" d="M9.508 1A1.509 1.498 0 0 0 8 2.498a1.509 1.498 0 0 0 1.508 1.496 1.509 1.498 0 0 0 1.51-1.496A1.509 1.498 0 0 0 9.508 1zm0 .994a.506.502 0 0 1 .508.504.506.502 0 0 1-.508.502.506.502 0 0 1-.506-.502.506.502 0 0 1 .506-.504zM3.508 7A1.509 1.498 0 0 0 2 8.498a1.509 1.498 0 0 0 1.508 1.496 1.509 1.498 0 0 0 1.51-1.496A1.509 1.498 0 0 0 3.508 7zm0 .994a.506.502 0 0 1 .508.504.506.502 0 0 1-.508.502.506.502 0 0 1-.506-.502.506.502 0 0 1 .506-.504z"/>
</svg>
